X:054
T:Lord Cathcart’s Fav’t TS.054
M:6/8
L:1/8
Q:3/8=110
S:Thomas Sands’ MS,1810,Lincolnshire
R:jig
O:England;Lincolnshire
Z:vmp.Ruairidh Greig, 2011
K:Bb
F|FBd f2f|fed c2e|dBf ecg|B3A2F|
FBd f2f|fed c2d|edB dcA|(c3B2):|
f|fga b2b|bag ^f2f|ged ceg|(B3A2)B|
cde fga|d3b2a|agf efg|fge fga|
bfd Bdf|fed c2e|(dB).f (ec),g|(B3A2)c|
Bdff2f|fed c2e|edB dcA|(c3B2)|]

